TileServer und Tiles/svg/9/28_1.svg

<?xml version='1.0' encoding='UTF-8' standalone='no'?>
<svg xmlns="http://www.w3.org/2000/svg" width="497pt" viewBox="0 0 497 279" xmlns:xlink="http://www.w3.org/1999/xlink" height="279pt">
 <defs style="stroke:none;" overflow="visible">
  <path id="glyph0-3" d="M 3.9375 -6.796875 C 3.375 -7.296875 2.203125 -7.90625 1.3125 -8.296875 L 0.6875 -7.46875 C 1.625 -7.0625 2.78125 -6.40625 3.3125 -5.875 Z M 2.15625 0.890625 C 2.9375 -0.5 3.875 -2.375 4.5625 -3.9375 L 3.71875 -4.609375 C 2.953125 -2.90625 1.921875 -0.953125 1.203125 0.1875 Z M 1.484375 -11.578125 C 2.453125 -11.15625 3.609375 -10.46875 4.1875 -9.9375 L 4.84375 -10.828125 C 4.265625 -11.359375 3.0625 -12 2.125 -12.390625 Z M 6.5625 -0.71875 L 6.5625 -4.328125 L 12.390625 -4.328125 L 12.390625 -0.71875 Z M 12.390625 -8.796875 L 12.390625 -5.390625 L 6.5625 -5.390625 L 6.5625 -8.796875 Z M 9.09375 -9.875 C 9.34375 -10.59375 9.609375 -11.46875 9.859375 -12.28125 L 8.59375 -12.453125 C 8.46875 -11.703125 8.21875 -10.671875 7.96875 -9.875 L 5.484375 -9.875 L 5.484375 1.140625 L 6.5625 1.140625 L 6.5625 0.375 L 12.390625 0.375 L 12.390625 1.015625 L 13.515625 1.015625 L 13.515625 -9.875 Z M 9.09375 -9.875 "/>
  <path id="glyph0-2" d="M 14.0625 -9.1875 L 14.0625 -10.265625 L 6.4375 -10.265625 C 6.6875 -10.9375 6.9375 -11.609375 7.15625 -12.28125 L 6 -12.5625 C 5.796875 -11.796875 5.53125 -11.03125 5.203125 -10.265625 L 0.953125 -10.265625 L 0.953125 -9.1875 L 4.71875 -9.1875 C 3.71875 -7.203125 2.34375 -5.359375 0.53125 -4.125 C 0.75 -3.890625 1.03125 -3.46875 1.1875 -3.1875 C 2 -3.75 2.71875 -4.40625 3.359375 -5.140625 L 3.359375 -0.21875 L 4.46875 -0.21875 L 4.46875 -5.40625 L 7.65625 -5.40625 L 7.65625 1.171875 L 8.765625 1.171875 L 8.765625 -5.40625 L 12.140625 -5.40625 L 12.140625 -1.671875 C 12.140625 -1.453125 12.0625 -1.390625 11.8125 -1.375 C 11.578125 -1.375 10.703125 -1.359375 9.75 -1.390625 C 9.90625 -1.09375 10.0625 -0.6875 10.109375 -0.390625 C 11.40625 -0.375 12.1875 -0.390625 12.640625 -0.5625 C 13.109375 -0.734375 13.25 -1.046875 13.25 -1.65625 L 13.25 -6.453125 L 8.765625 -6.453125 L 8.765625 -8.453125 L 7.65625 -8.453125 L 7.65625 -6.453125 L 4.375 -6.453125 C 4.984375 -7.3125 5.5 -8.21875 5.953125 -9.1875 Z M 14.0625 -9.1875 "/>
  <path id="glyph0-1" d="M 12.203125 -8.703125 L 9.671875 -8.703125 L 9.671875 -10.953125 L 12.203125 -10.953125 Z M 8.640625 -8.703125 L 6.1875 -8.703125 L 6.1875 -10.953125 L 8.640625 -10.953125 Z M 5.140625 -8.703125 L 2.75 -8.703125 L 2.75 -10.953125 L 5.140625 -10.953125 Z M 13.3125 -11.90625 L 1.6875 -11.90625 L 1.6875 -7.71875 L 5.671875 -7.71875 C 4.84375 -6.34375 3.140625 -4.921875 1.359375 -4.109375 C 1.578125 -3.921875 1.921875 -3.5 2.0625 -3.265625 C 3.09375 -3.765625 4.078125 -4.453125 4.9375 -5.234375 L 11.078125 -5.234375 C 10.359375 -3.921875 9.296875 -2.859375 8.015625 -2.0625 C 7.3125 -2.796875 6.265625 -3.71875 5.390625 -4.375 L 4.515625 -3.84375 C 5.40625 -3.1875 6.40625 -2.265625 7.046875 -1.515625 C 5.34375 -0.65625 3.328125 -0.140625 1.203125 0.1875 C 1.421875 0.40625 1.71875 0.90625 1.84375 1.171875 C 6.5625 0.34375 10.8125 -1.546875 12.640625 -5.8125 L 11.90625 -6.265625 L 11.71875 -6.21875 L 5.90625 -6.21875 C 6.265625 -6.625 6.578125 -7.0625 6.859375 -7.484375 L 6.15625 -7.71875 L 13.3125 -7.71875 Z M 13.3125 -11.90625 "/>
  <path id="glyph0-0" d="M 1.5 1.796875 L 13.5 1.796875 L 13.5 -13.203125 L 1.5 -13.203125 Z M 7.5 -6.3125 L 2.734375 -12.453125 L 12.265625 -12.453125 Z M 7.984375 -5.703125 L 12.75 -11.828125 L 12.75 0.4375 Z M 2.734375 1.046875 L 7.5 -5.078125 L 12.265625 1.046875 Z M 2.25 -11.828125 L 7.015625 -5.703125 L 2.25 0.4375 Z M 2.25 -11.828125 "/>
 </defs>
 <image width="497" xlink:href="svg/9/28_1.jpg" height="279"/>
 <g>
  <path d="M 353.179688 175.933594 L 350.648438 175.933594 L 350.648438 173.683594 L 353.179688 173.683594 Z M 349.617188 175.933594 L 347.164062 175.933594 L 347.164062 173.683594 L 349.617188 173.683594 Z M 346.117188 175.933594 L 343.726562 175.933594 L 343.726562 173.683594 L 346.117188 173.683594 Z M 354.289062 172.730469 L 342.664062 172.730469 L 342.664062 176.917969 L 346.648438 176.917969 C 345.820312 178.292969 344.117188 179.714844 342.335938 180.527344 C 342.554688 180.714844 342.898438 181.136719 343.039062 181.371094 C 344.070312 180.871094 345.054688 180.183594 345.914062 179.402344 L 352.054688 179.402344 C 351.335938 180.714844 350.273438 181.777344 348.992188 182.574219 C 348.289062 181.839844 347.242188 180.917969 346.367188 180.261719 L 345.492188 180.792969 C 346.382812 181.449219 347.382812 182.371094 348.023438 183.121094 C 346.320312 183.980469 344.304688 184.496094 342.179688 184.824219 C 342.398438 185.042969 342.695312 185.542969 342.820312 185.808594 C 347.539062 184.980469 351.789062 183.089844 353.617188 178.824219 L 352.882812 178.371094 L 352.695312 178.417969 L 346.882812 178.417969 C 347.242188 178.011719 347.554688 177.574219 347.835938 177.152344 L 347.132812 176.917969 L 354.289062 176.917969 Z M 354.289062 172.730469 " transform=" rotate(  340 363.476 181.638) " style="fill:none;stroke-width:2;stroke-linecap:butt;stroke-linejoin:round;stroke:rgb(100%,100%,100%);stroke-opacity:0.6;stroke-miterlimit:10;"/>
  <path d="M 370.039062 175.449219 L 370.039062 174.371094 L 362.414062 174.371094 C 362.664062 173.699219 362.914062 173.027344 363.132812 172.355469 L 361.976562 172.074219 C 361.773438 172.839844 361.507812 173.605469 361.179688 174.371094 L 356.929688 174.371094 L 356.929688 175.449219 L 360.695312 175.449219 C 359.695312 177.433594 358.320312 179.277344 356.507812 180.511719 C 356.726562 180.746094 357.007812 181.167969 357.164062 181.449219 C 357.976562 180.886719 358.695312 180.230469 359.335938 179.496094 L 359.335938 184.417969 L 360.445312 184.417969 L 360.445312 179.230469 L 363.632812 179.230469 L 363.632812 185.808594 L 364.742188 185.808594 L 364.742188 179.230469 L 368.117188 179.230469 L 368.117188 182.964844 C 368.117188 183.183594 368.039062 183.246094 367.789062 183.261719 C 367.554688 183.261719 366.679688 183.277344 365.726562 183.246094 C 365.882812 183.542969 366.039062 183.949219 366.085938 184.246094 C 367.382812 184.261719 368.164062 184.246094 368.617188 184.074219 C 369.085938 183.902344 369.226562 183.589844 369.226562 182.980469 L 369.226562 178.183594 L 364.742188 178.183594 L 364.742188 176.183594 L 363.632812 176.183594 L 363.632812 178.183594 L 360.351562 178.183594 C 360.960938 177.324219 361.476562 176.417969 361.929688 175.449219 Z M 370.039062 175.449219 " transform=" rotate(  340 363.476 181.638) " style="fill:none;stroke-width:2;stroke-linecap:butt;stroke-linejoin:round;stroke:rgb(100%,100%,100%);stroke-opacity:0.6;stroke-miterlimit:10;"/>
  <path d="M 374.914062 177.839844 C 374.351562 177.339844 373.179688 176.730469 372.289062 176.339844 L 371.664062 177.167969 C 372.601562 177.574219 373.757812 178.230469 374.289062 178.761719 Z M 373.132812 185.527344 C 373.914062 184.136719 374.851562 182.261719 375.539062 180.699219 L 374.695312 180.027344 C 373.929688 181.730469 372.898438 183.683594 372.179688 184.824219 Z M 372.460938 173.058594 C 373.429688 173.480469 374.585938 174.167969 375.164062 174.699219 L 375.820312 173.808594 C 375.242188 173.277344 374.039062 172.636719 373.101562 172.246094 Z M 377.539062 183.917969 L 377.539062 180.308594 L 383.367188 180.308594 L 383.367188 183.917969 Z M 383.367188 175.839844 L 383.367188 179.246094 L 377.539062 179.246094 L 377.539062 175.839844 Z M 380.070312 174.761719 C 380.320312 174.042969 380.585938 173.167969 380.835938 172.355469 L 379.570312 172.183594 C 379.445312 172.933594 379.195312 173.964844 378.945312 174.761719 L 376.460938 174.761719 L 376.460938 185.777344 L 377.539062 185.777344 L 377.539062 185.011719 L 383.367188 185.011719 L 383.367188 185.652344 L 384.492188 185.652344 L 384.492188 174.761719 Z M 380.070312 174.761719 " transform=" rotate(  340 363.476 181.638) " style="fill:none;stroke-width:2;stroke-linecap:butt;stroke-linejoin:round;stroke:rgb(100%,100%,100%);stroke-opacity:0.6;stroke-miterlimit:10;"/>
  <g transform=" rotate(  340 363.476 181.638) " style="fill:rgb(30.196078%,50.196078%,70.196078%);fill-opacity:1;">
   <use xlink:href="#glyph0-1" y="184.637591" x="340.976201"/>
   <use xlink:href="#glyph0-2" y="184.637591" x="355.976201"/>
   <use xlink:href="#glyph0-3" y="184.637591" x="370.976201"/>
  </g>
 </g>
</svg>

<svg xmlns="http://www.w3.org/2000/svg" xmlns:xlink="http://www.w3.org/1999/xlink" viewBox="0 0 497 279"> <defs overflow="visible" style="stroke:none">  <path id="c" d="M4-6.8c-.7-.5-1.9-1.1-2.8-1.5l-.5.8c1 .5 2 1 2.6 1.6ZM2.1.9A60.4 60.4 0 0 0 4.6-4l-.9-.6A44.3 44.3 0 0 1 1.2.2Zm-.6-12.5c1 .4 2.1 1.1 2.7 1.7l.6-1.1c-.5-.3-1.7-1-2.7-1.3Zm5 10.9v-3.6h6v3.6Zm6-8.1v3.4H6.6v-3.4ZM9-9.8l.9-2.6-1.3-.1L8-9.9H5.5v11h1V.4h6V1h1V-9.9Zm0-.1"/>  <path id="b" d="M14-9.2v-1H6.5l.7-2.1-1.2-.4-.8 2.4H1v1.1h3.7c-1 2-2.4 3.8-4.2 5l.7 1.1c.8-.6 1.5-1.3 2.2-2.1v5.1h1v-5.3h3.4v6.6h.9v-6.6h3.5v3.7c-.1.2-.1.3-.4.3h-2l.2 1c1.4 0 2.1 0 2.6-.2.5-.1.7-.4.7-1v-5H8.8v-1.9H7.7v2H4.4C5-7.3 5.5-8.2 6-9.2Zm0 0"/>  <path id="a" d="M12.2-8.7H9.7V-11h2.5Zm-3.6 0H6.2V-11h2.4Zm-3.5 0H2.8V-11H5Zm8.2-3.2H1.7v4.2h4C4.8-6.3 3-5 1.4-4.1l.6.8c1-.5 2-1.2 2.9-2h6.2A8.6 8.6 0 0 1 8-2a23.7 23.7 0 0 0-2.7-2.4l-.8.6c1 .6 2 1.5 2.5 2.3A19.8 19.8 0 0 1 1.2.2l.6 1c4.8-.9 9-2.7 10.8-7l-.6-.5H6c.3-.2.6-.7 1-1.1l-.8-.3h7.1Zm0-.1"/>  <path d="M1.5 1.8h12v-15h-12Zm6-8.1-4.8-6.2h9.6Zm.5.6 4.8-6.1V.4ZM2.7 1l4.8-6 4.8 6Zm-.5-12.8L7-5.7 2.2.4Zm.1 0"/> </defs> <image xlink:href="svg/9/28_1.jpg" width="497" height="279"/> <path d="M353.2 176h-2.6v-2.4h2.6Zm-3.6 0h-2.4v-2.4h2.4Zm-3.5 0h-2.4v-2.4h2.4Zm8.2-3.4h-11.6v4.4h4c-1 1.3-2.7 2.7-4.5 3.5.4.2.8.6.8.9 1-.5 2-1.2 3-2h6a8.6 8.6 0 0 1-3 3.2 23.7 23.7 0 0 0-2.6-2.3l-1 .5c1.1.6 2.1 1.6 2.6 2.2a19.8 19.8 0 0 1-5.8 1.8l.6 1c4.7-.8 9-2.7 10.8-7l-.6-.4h-6.1l1-1.2-.9-.3h7.3ZM370 175.4v-1h-7.6l.7-2-1.1-.4-.8 2.4h-4.3v1h3.8c-1 2-2.4 3.9-4.2 5.1l.7 1c.8-.7 1.5-1.4 2.1-2.1v5.1h1.1v-5.4h3.2v6.7h1.1v-6.6h3.4v3.8c0 .2 0 .2-.3.3h-2l.2.9c1.4 0 2 0 2.6-.2s.6-.4.6-1v-4.8h-4.5v-2h-1v2h-3.4c.7-.9 1.1-1.8 1.6-2.8Zm5 2.4c-.7-.5-1.9-1-2.8-1.5l-.5.9c.9.4 2 1 2.6 1.6Zm-2 7.7a60.4 60.4 0 0 0 2.5-4.8l-.8-.7a44.3 44.3 0 0 1-2.5 4.8Zm-.5-12.4c1 .4 2 .9 2.7 1.6l.6-.9c-.6-.5-1.8-1.2-2.7-1.6Zm5 10.8v-3.6h5.9v3.7Zm5.9-7.9v3.1h-5.9v-3.3Zm-3.4-1.3.8-2.3-1.2-.2-.7 2.6h-2.4v11h1v-.8h5.9v.7h1v-11Zm0 .1" style="fill:none;stroke-width:2;stroke-linecap:butt;stroke-linejoin:round;stroke:#fff;stroke-opacity:.6;stroke-miterlimit:10" transform=" rotate(  340 363.476 181.638) "/> <g style="fill:#4d80b3;fill-opacity:1" transform=" rotate(  340 363.476 181.638) ">  <use xlink:href="#a" x="341" y="184.6"/>  <use xlink:href="#b" x="356" y="184.6"/>  <use xlink:href="#c" x="371" y="184.6"/> </g></svg>
